images/placeholder2.svg

<svg xmlns="http://www.w3.org/2000/svg" viewBox="117 -117.2 450 226.7" enable-background="new 117 -117.2 450 226.7"><style type="text/css">.st0{fill:#565656;stroke:#FFFFFF;stroke-miterlimit:10;} .st1{fill:#FFFFFF;} .st2{font-family:&apos;Helvetica-Bold&apos;;} .st3{font-size:72px;}</style><font horiz-adv-x="2048"><font-face font-family="Helvetica-Bold" units-per-em="2048" underline-position="-155" underline-thickness="101"/><glyph unicode="0" horiz-adv-x="1139" d="M564 196c85 0 140 44 167 133 26 88 39 215 39 382 0 175-13 304-39 388-27 84-82 126-167 126s-141-42-168-126-41-213-41-388c0-167 14-294 41-382 27-89 83-133 168-133m500 515c0-239-37-424-111-553-75-129-204-194-389-194s-314 65-388 194c-75 129-112 314-112 553s37 424 112 554c74 130 203 195 388 195s314-65 389-195c74-130 111-315 111-554z"/><glyph unicode="2" horiz-adv-x="1139" d="M131 285c41 97 137 199 288 307 131 94 216 161 255 202 59 63 89 133 89 208 0 61-17 112-51 153s-83 61-146 61c-87 0-146-32-177-97-18-37-29-97-32-178h-277c5 123 27 223 67 299 76 145 211 217 405 217 153 0 275-42 366-127s136-198 136-338c0-107-32-203-96-286-42-55-111-117-207-185l-114-81c-71-51-120-87-146-110-27-23-49-49-67-79h633v-251h-993c3 104 25 199 67 285z"/><glyph unicode="4" horiz-adv-x="1139" d="M1071 312h-164v-312h-279v312h-574v249l533 880h320v-906h164m-443 0v626l-363-626z"/><glyph unicode="5" horiz-adv-x="1139" d="M338 388c11-62 33-110 65-143 32-34 79-51 140-51 71 0 125 25 162 75 37 49 55 112 55 187 0 74-17 137-52 188s-89 76-162 76c-35 0-65-4-90-13-45-16-78-46-101-89l-256 12 102 801h799v-242h-593l-52-317c44 29 78 48 103 57 41 15 92 23 151 23 120 0 225-40 314-121s134-198 134-352c0-134-43-254-129-359s-215-158-386-158c-138 0-251 37-340 111s-138 179-148 315z"/><glyph unicode="A" horiz-adv-x="1479" d="M559 557h374l-184 580m-171 337h348l522-1474h-334l-95 303h-543l-102-303h-322z"/><glyph unicode="E" horiz-adv-x="1366" d="M1246 1213h-780v-313h716v-256h-716v-379h816v-265h-1117v1474h1081z"/><glyph unicode="G" horiz-adv-x="1593" d="M1147 1014c-23 101-80 171-171 211-51 22-107 33-169 33-119 0-216-45-292-134-77-90-115-225-115-405 0-181 41-310 124-385s177-113 282-113c103 0 188 30 254 90 66 59 107 137 122 234h-341v246h614v-791h-204l-31 184c-59-70-113-119-160-148-81-50-181-75-300-75-195 0-355 68-480 203-130 136-195 322-195 558 0 239 66 430 197 574s305 216 521 216c187 0 338-47 452-142 113-95 178-214 195-356z"/><glyph unicode="I" horiz-adv-x="569" d="M438 0h-306v1474h306z"/><glyph unicode="M" horiz-adv-x="1706" d="M1133 1474h443v-1474h-287v997c0 29 0 69 1 121 1 51 1 91 1 119l-279-1237h-299l-277 1237c0-28 0-68 1-119 1-52 1-92 1-121v-997h-287v1474h448l268-1159z"/><glyph unicode="x" horiz-adv-x="1139" d="M26 0l372 552-356 536h349l182-316 178 316h339l-358-531 372-557h-355l-188 327-189-327z"/></font><path class="st0" d="M117.5-116.7h449v225.7h-449z"/><text transform="translate(216.354 -31.898)" class="st1 st2 st3">IMAGE</text><text transform="translate(202.526 46.483)" class="st1 st2 st3">450x200</text></svg>

<?xml version="1.0" encoding="utf-8"?>
<!-- Generator: Adobe Illustrator 19.1.0, SVG Export Plug-In . SVG Version: 6.00 Build 0)  -->
<svg version="1.1" id="Layer_1" xmlns="http://www.w3.org/2000/svg" xmlns:xlink="http://www.w3.org/1999/xlink" x="0px" y="0px"
	 viewBox="117 -117.2 450 226.7" style="enable-background:new 117 -117.2 450 226.7;" xml:space="preserve">
<style type="text/css">
	.st0{fill:#565656;stroke:#FFFFFF;stroke-miterlimit:10;}
	.st1{fill:#FFFFFF;}
	.st2{font-family:'Helvetica-Bold';}
	.st3{font-size:72px;}
</style>
<font horiz-adv-x="2048">
<!-- Helvetica is a registered trademark of Linotype AG -->
<!-- Copyright: Copyright 2015 Adobe System Incorporated. All rights reserved. -->
<font-face font-family="Helvetica-Bold" units-per-em="2048" underline-position="-155" underline-thickness="101"/>
<missing-glyph horiz-adv-x="1479" d="M154,0l0,1474l1187,0l0,-1474M1157,184l0,1106l-819,0l0,-1106z"/>
<glyph unicode="0" horiz-adv-x="1139" d="M564,196C649,196 704,240 731,329C757,417 770,544 770,711C770,886 757,1015 731,1099C704,1183 649,1225 564,1225C479,1225 423,1183 396,1099C369,1015 355,886 355,711C355,544 369,417 396,329C423,240 479,196 564,196M1064,711C1064,472 1027,287 953,158C878,29 749,-36 564,-36C379,-36 250,29 176,158C101,287 64,472 64,711C64,950 101,1135 176,1265C250,1395 379,1460 564,1460C749,1460 878,1395 953,1265C1027,1135 1064,950 1064,711z"/>
<glyph unicode="2" horiz-adv-x="1139" d="M131,285C172,382 268,484 419,592C550,686 635,753 674,794C733,857 763,927 763,1002C763,1063 746,1114 712,1155C678,1196 629,1216 566,1216C479,1216 420,1184 389,1119C371,1082 360,1022 357,941l-277,0C85,1064 107,1164 147,1240C223,1385 358,1457 552,1457C705,1457 827,1415 918,1330C1009,1245 1054,1132 1054,992C1054,885 1022,789 958,706C916,651 847,589 751,521l-114,-81C566,389 517,353 491,330C464,307 442,281 424,251l633,0l0,-251l-993,0C67,104 89,199 131,285z"/>
<glyph unicode="4" horiz-adv-x="1139" d="M1071,312l-164,0l0,-312l-279,0l0,312l-574,0l0,249l533,880l320,0l0,-906l164,0M628,535l0,626l-363,-626z"/>
<glyph unicode="5" horiz-adv-x="1139" d="M338,388C349,326 371,278 403,245C435,211 482,194 543,194C614,194 668,219 705,269C742,318 760,381 760,456C760,530 743,593 708,644C673,695 619,720 546,720C511,720 481,716 456,707C411,691 378,661 355,618l-256,12l102,801l799,0l0,-242l-593,0l-52,-317C399,901 433,920 458,929C499,944 550,952 609,952C729,952 834,912 923,831C1012,750 1057,633 1057,479C1057,345 1014,225 928,120C842,15 713,-38 542,-38C404,-38 291,-1 202,73C113,147 64,252 54,388z"/>
<glyph unicode="A" horiz-adv-x="1479" d="M559,557l374,0l-184,580M578,1474l348,0l522,-1474l-334,0l-95,303l-543,0l-102,-303l-322,0z"/>
<glyph unicode="E" horiz-adv-x="1366" d="M1246,1213l-780,0l0,-313l716,0l0,-256l-716,0l0,-379l816,0l0,-265l-1117,0l0,1474l1081,0z"/>
<glyph unicode="G" horiz-adv-x="1593" d="M1147,1014C1124,1115 1067,1185 976,1225C925,1247 869,1258 807,1258C688,1258 591,1213 515,1124C438,1034 400,899 400,719C400,538 441,409 524,334C607,259 701,221 806,221C909,221 994,251 1060,311C1126,370 1167,448 1182,545l-341,0l0,246l614,0l0,-791l-204,0l-31,184C1161,114 1107,65 1060,36C979,-14 879,-39 760,-39C565,-39 405,29 280,164C150,300 85,486 85,722C85,961 151,1152 282,1296C413,1440 587,1512 803,1512C990,1512 1141,1465 1255,1370C1368,1275 1433,1156 1450,1014z"/>
<glyph unicode="I" horiz-adv-x="569" d="M438,0l-306,0l0,1474l306,0z"/>
<glyph unicode="M" horiz-adv-x="1706" d="M1133,1474l443,0l0,-1474l-287,0l0,997C1289,1026 1289,1066 1290,1118C1291,1169 1291,1209 1291,1237l-279,-1237l-299,0l-277,1237C436,1209 436,1169 437,1118C438,1066 438,1026 438,997l0,-997l-287,0l0,1474l448,0l268,-1159z"/>
<glyph unicode="x" horiz-adv-x="1139" d="M26,0l372,552l-356,536l349,0l182,-316l178,316l339,0l-358,-531l372,-557l-355,0l-188,327l-189,-327z"/>
</font>

	<rect x="117.5" y="-116.7" class="st0" width="449" height="225.7"/>
<text transform="matrix(1 0 0 1 216.3541 -31.8979)" class="st1 st2 st3">IMAGE</text>
<text transform="matrix(1 0 0 1 202.5257 46.4834)" class="st1 st2 st3">450x200</text>
</svg>
